lib/assets/buttons/repeat_all.svg

<svg height="24" viewBox="0 0 24 24" width="24" xmlns="http://www.w3.org/2000/svg">
    <path d="m17.555556 17h-11.1111116v-3l-4.4444444 4 4.4444444 4v-3h13.3333336v-6h-2.222222m-11.1111116-6h11.1111116v3l4.444444-4-4.444444-4v3h-13.3333338v6h2.2222222z"
            stroke-width="1.054093" />
</svg>

<?xml version="1.0" encoding="UTF-8" standalone="no"?>
<svg
   xmlns:dc="http://purl.org/dc/elements/1.1/"
   xmlns:cc="http://creativecommons.org/ns#"
   xmlns:rdf="http://www.w3.org/1999/02/22-rdf-syntax-ns#"
   xmlns:svg="http://www.w3.org/2000/svg"
   xmlns="http://www.w3.org/2000/svg"
   id="svg5754"
   viewBox="0 0 24 24"
   height="24"
   width="24"
   version="1.1">
  <metadata
     id="metadata5760">
    <rdf:RDF>
      <cc:Work
         rdf:about="">
        <dc:format>image/svg+xml</dc:format>
        <dc:type
           rdf:resource="http://purl.org/dc/dcmitype/StillImage" />
        <dc:title></dc:title>
      </cc:Work>
    </rdf:RDF>
  </metadata>
  <defs
     id="defs5758" />
  <path
     style="stroke-width:1.05409253"
     id="path5752"
     d="M 17.555556,17 H 6.4444444 V 14 L 2,18 6.4444444,22 V 19 H 19.777778 V 13 H 17.555556 M 6.4444444,7 H 17.555556 v 3 L 22,6 17.555556,2 V 5 H 4.2222222 v 6 h 2.2222222 z" />
</svg>
